static/img/kroki/7919f47cf8e9eb7eccb14b44a3e402ad.svg

<?xml version="1.0" encoding="us-ascii" standalone="no"?><svg xmlns="http://www.w3.org/2000/svg" xmlns:xlink="http://www.w3.org/1999/xlink" contentStyleType="text/css" height="1056px" preserveAspectRatio="none" style="width:399px;height:1056px;" version="1.1" viewBox="0 0 399 1056" width="399px" zoomAndPan="magnify"><defs/><g><!--class azure_mysql_server_type--><g id="elem_azure_mysql_server_type"><rect codeLine="23" fill="#3D176E" height="39.7891" id="azure_mysql_server_type" rx="2.5" ry="2.5" style="stroke:#000D19;stroke-width:0.5;" width="254" x="31" y="1010.52"/><ellipse cx="46" cy="1030.4145" fill="#ADD1B2" rx="11" ry="11" style="stroke:#181818;stroke-width:1.0;"/><path d="M48.9688,1036.0552 Q48.3906,1036.352 47.75,1036.4927 Q47.1094,1036.6489 46.4063,1036.6489 Q43.9063,1036.6489 42.5781,1035.0083 Q41.2656,1033.352 41.2656,1030.227 Q41.2656,1027.102 42.5781,1025.4458 Q43.9063,1023.7895 46.4063,1023.7895 Q47.1094,1023.7895 47.75,1023.9458 Q48.4063,1024.102 48.9688,1024.3989 L48.9688,1027.1177 Q48.3438,1026.5395 47.75,1026.2739 Q47.1563,1025.9927 46.5313,1025.9927 Q45.1875,1025.9927 44.5,1027.0708 Q43.8125,1028.1333 43.8125,1030.227 Q43.8125,1032.3208 44.5,1033.3989 Q45.1875,1034.4614 46.5313,1034.4614 Q47.1563,1034.4614 47.75,1034.1958 Q48.3438,1033.9145 48.9688,1033.3364 L48.9688,1036.0552 Z " fill="#000000"/><text fill="#D9B8FF" font-family="Helvetica" font-size="17" lengthAdjust="spacing" textLength="212" x="65" y="1036.2998">azure_mysql_server_type</text></g><!--class database_instance_type--><g id="elem_database_instance_type"><rect codeLine="26" fill="#3D176E" height="39.7891" id="database_instance_type" rx="2.5" ry="2.5" style="stroke:#000D19;stroke-width:0.5;" width="242" x="150" y="849.73"/><ellipse cx="165" cy="869.6245" fill="#ADD1B2" rx="11" ry="11" style="stroke:#181818;stroke-width:1.0;"/><path d="M167.9688,875.2652 Q167.3906,875.562 166.75,875.7027 Q166.1094,875.8589 165.4063,875.8589 Q162.9063,875.8589 161.5781,874.2183 Q160.2656,872.562 160.2656,869.437 Q160.2656,866.312 161.5781,864.6558 Q162.9063,862.9995 165.4063,862.9995 Q166.1094,862.9995 166.75,863.1558 Q167.4063,863.312 167.9688,863.6089 L167.9688,866.3277 Q167.3438,865.7495 166.75,865.4839 Q166.1563,865.2027 165.5313,865.2027 Q164.1875,865.2027 163.5,866.2808 Q162.8125,867.3433 162.8125,869.437 Q162.8125,871.5308 163.5,872.6089 Q164.1875,873.6714 165.5313,873.6714 Q166.1563,873.6714 166.75,873.4058 Q167.3438,873.1245 167.9688,872.5464 L167.9688,875.2652 Z " fill="#000000"/><text fill="#D9B8FF" font-family="Helvetica" font-size="17" lengthAdjust="spacing" textLength="200" x="184" y="875.5098">database_instance_type</text></g><!--class instance_type--><g id="elem_instance_type"><rect codeLine="29" fill="#3D176E" height="39.7891" id="instance_type" rx="2.5" ry="2.5" style="stroke:#000D19;stroke-width:0.5;" width="158" x="190" y="688.94"/><ellipse cx="205" cy="708.8345" fill="#ADD1B2" rx="11" ry="11" style="stroke:#181818;stroke-width:1.0;"/><path d="M207.9688,714.4752 Q207.3906,714.772 206.75,714.9127 Q206.1094,715.0689 205.4063,715.0689 Q202.9063,715.0689 201.5781,713.4283 Q200.2656,711.772 200.2656,708.647 Q200.2656,705.522 201.5781,703.8658 Q202.9063,702.2095 205.4063,702.2095 Q206.1094,702.2095 206.75,702.3658 Q207.4063,702.522 207.9688,702.8189 L207.9688,705.5377 Q207.3438,704.9595 206.75,704.6939 Q206.1563,704.4127 205.5313,704.4127 Q204.1875,704.4127 203.5,705.4908 Q202.8125,706.5533 202.8125,708.647 Q202.8125,710.7408 203.5,711.8189 Q204.1875,712.8814 205.5313,712.8814 Q206.1563,712.8814 206.75,712.6158 Q207.3438,712.3345 207.9688,711.7564 L207.9688,714.4752 Z " fill="#000000"/><text fill="#D9B8FF" font-family="Helvetica" font-size="17" lengthAdjust="spacing" textLength="116" x="224" y="714.7198">instance_type</text></g><!--class microsoft_resource--><g id="elem_microsoft_resource"><rect codeLine="32" fill="#3D176E" height="39.7891" id="microsoft_resource" rx="2.5" ry="2.5" style="stroke:#000D19;stroke-width:0.5;" width="200" x="7" y="267.58"/><ellipse cx="22" cy="287.4745" fill="#ADD1B2" rx="11" ry="11" style="stroke:#181818;stroke-width:1.0;"/><path d="M24.9688,293.1152 Q24.3906,293.412 23.75,293.5527 Q23.1094,293.7089 22.4063,293.7089 Q19.9063,293.7089 18.5781,292.0683 Q17.2656,290.412 17.2656,287.287 Q17.2656,284.162 18.5781,282.5058 Q19.9063,280.8495 22.4063,280.8495 Q23.1094,280.8495 23.75,281.0058 Q24.4063,281.162 24.9688,281.4589 L24.9688,284.1777 Q24.3438,283.5995 23.75,283.3339 Q23.1563,283.0527 22.5313,283.0527 Q21.1875,283.0527 20.5,284.1308 Q19.8125,285.1933 19.8125,287.287 Q19.8125,289.3808 20.5,290.4589 Q21.1875,291.5214 22.5313,291.5214 Q23.1563,291.5214 23.75,291.2558 Q24.3438,290.9745 24.9688,290.3964 L24.9688,293.1152 Z " fill="#000000"/><text fill="#D9B8FF" font-family="Helvetica" font-size="17" lengthAdjust="spacing" textLength="158" x="41" y="293.3598">microsoft_resource</text></g><!--class phantom_resource--><g id="elem_phantom_resource"><rect codeLine="35" fill="#3D176E" height="39.7891" id="phantom_resource" rx="2.5" ry="2.5" style="stroke:#000D19;stroke-width:0.5;" width="198" x="160" y="167.79"/><ellipse cx="175" cy="187.6845" fill="#ADD1B2" rx="11" ry="11" style="stroke:#181818;stroke-width:1.0;"/><path d="M177.9688,193.3252 Q177.3906,193.622 176.75,193.7627 Q176.1094,193.9189 175.4063,193.9189 Q172.9063,193.9189 171.5781,192.2783 Q170.2656,190.622 170.2656,187.497 Q170.2656,184.372 171.5781,182.7158 Q172.9063,181.0595 175.4063,181.0595 Q176.1094,181.0595 176.75,181.2158 Q177.4063,181.372 177.9688,181.6689 L177.9688,184.3877 Q177.3438,183.8095 176.75,183.5439 Q176.1563,183.2627 175.5313,183.2627 Q174.1875,183.2627 173.5,184.3408 Q172.8125,185.4033 172.8125,187.497 Q172.8125,189.5908 173.5,190.6689 Q174.1875,191.7314 175.5313,191.7314 Q176.1563,191.7314 176.75,191.4658 Q177.3438,191.1845 177.9688,190.6064 L177.9688,193.3252 Z " fill="#000000"/><text fill="#D9B8FF" font-family="Helvetica" font-size="17" lengthAdjust="spacing" textLength="156" x="194" y="193.5698">phantom_resource</text></g><!--class quota--><g id="elem_quota"><rect codeLine="38" fill="#3D176E" height="39.7891" id="quota" rx="2.5" ry="2.5" style="stroke:#000D19;stroke-width:0.5;" width="90" x="220" y="367.36"/><ellipse cx="235" cy="387.2545" fill="#ADD1B2" rx="11" ry="11" style="stroke:#181818;stroke-width:1.0;"/><path d="M237.9688,392.8952 Q237.3906,393.192 236.75,393.3327 Q236.1094,393.4889 235.4063,393.4889 Q232.9063,393.4889 231.5781,391.8483 Q230.2656,390.192 230.2656,387.067 Q230.2656,383.942 231.5781,382.2858 Q232.9063,380.6295 235.4063,380.6295 Q236.1094,380.6295 236.75,380.7858 Q237.4063,380.942 237.9688,381.2389 L237.9688,383.9577 Q237.3438,383.3795 236.75,383.1139 Q236.1563,382.8327 235.5313,382.8327 Q234.1875,382.8327 233.5,383.9108 Q232.8125,384.9733 232.8125,387.067 Q232.8125,389.1608 233.5,390.2389 Q234.1875,391.3014 235.5313,391.3014 Q236.1563,391.3014 236.75,391.0358 Q237.3438,390.7545 237.9688,390.1764 L237.9688,392.8952 Z " fill="#000000"/><text fill="#D9B8FF" font-family="Helvetica" font-size="17" lengthAdjust="spacing" textLength="48" x="254" y="393.1398">quota</text></g><!--class resource--><g id="elem_resource"><rect codeLine="41" fill="#3D176E" height="39.7891" id="resource" rx="2.5" ry="2.5" style="stroke:#000D19;stroke-width:0.5;" width="113" x="85.5" y="7"/><ellipse cx="100.5" cy="26.8945" fill="#ADD1B2" rx="11" ry="11" style="stroke:#181818;stroke-width:1.0;"/><path d="M103.4688,32.5352 Q102.8906,32.832 102.25,32.9727 Q101.6094,33.1289 100.9063,33.1289 Q98.4063,33.1289 97.0781,31.4883 Q95.7656,29.832 95.7656,26.707 Q95.7656,23.582 97.0781,21.9258 Q98.4063,20.2695 100.9063,20.2695 Q101.6094,20.2695 102.25,20.4258 Q102.9063,20.582 103.4688,20.8789 L103.4688,23.5977 Q102.8438,23.0195 102.25,22.7539 Q101.6563,22.4727 101.0313,22.4727 Q99.6875,22.4727 99,23.5508 Q98.3125,24.6133 98.3125,26.707 Q98.3125,28.8008 99,29.8789 Q99.6875,30.9414 101.0313,30.9414 Q101.6563,30.9414 102.25,30.6758 Q102.8438,30.3945 103.4688,29.8164 L103.4688,32.5352 Z " fill="#000000"/><text fill="#D9B8FF" font-family="Helvetica" font-size="17" lengthAdjust="spacing" textLength="71" x="119.5" y="32.7798">resource</text></g><!--class type--><g id="elem_type"><rect codeLine="44" fill="#3D176E" height="39.7891" id="type" rx="2.5" ry="2.5" style="stroke:#000D19;stroke-width:0.5;" width="79" x="226.5" y="528.15"/><ellipse cx="241.5" cy="548.0445" fill="#ADD1B2" rx="11" ry="11" style="stroke:#181818;stroke-width:1.0;"/><path d="M244.4688,553.6852 Q243.8906,553.982 243.25,554.1227 Q242.6094,554.2789 241.9063,554.2789 Q239.4063,554.2789 238.0781,552.6383 Q236.7656,550.982 236.7656,547.857 Q236.7656,544.732 238.0781,543.0758 Q239.4063,541.4195 241.9063,541.4195 Q242.6094,541.4195 243.25,541.5758 Q243.9063,541.732 244.4688,542.0289 L244.4688,544.7477 Q243.8438,544.1695 243.25,543.9039 Q242.6563,543.6227 242.0313,543.6227 Q240.6875,543.6227 240,544.7008 Q239.3125,545.7633 239.3125,547.857 Q239.3125,549.9508 240,551.0289 Q240.6875,552.0914 242.0313,552.0914 Q242.6563,552.0914 243.25,551.8258 Q243.8438,551.5445 244.4688,550.9664 L244.4688,553.6852 Z " fill="#000000"/><text fill="#D9B8FF" font-family="Helvetica" font-size="17" lengthAdjust="spacing" textLength="37" x="260.5" y="553.9298">type</text></g><!--reverse link database_instance_type to azure_mysql_server_type--><g id="link_database_instance_type_azure_mysql_server_type"><path codeLine="47" d="M246.9332,904.4454 C225.2132,934.9654 193.43,979.63 171.68,1010.19 " fill="none" id="database_instance_type-backto-azure_mysql_server_type" style="stroke:#FFAF37;stroke-width:2.0;"/><polygon fill="none" points="257.37,889.78,242.0447,900.9664,251.8216,907.9243,257.37,889.78" style="stroke:#FFAF37;stroke-width:2.0;"/></g><!--reverse link microsoft_resource to azure_mysql_server_type--><g id="link_microsoft_resource_azure_mysql_server_type"><path codeLine="48" d="M103.6381,325.6812 C100.7681,358.4212 97,409.05 97,467.15 C97,467.15 97,467.15 97,870.63 C97,924.08 127.49,981.32 145.36,1010.28 " fill="none" id="microsoft_resource-backto-azure_mysql_server_type" style="stroke:#FFAF37;stroke-width:2.0;"/><polygon fill="none" points="105.21,307.75,97.6611,325.1573,109.6152,326.2052,105.21,307.75" style="stroke:#FFAF37;stroke-width:2.0;"/></g><!--reverse link instance_type to database_instance_type--><g id="link_instance_type_database_instance_type"><path codeLine="49" d="M269.47,746.9885 C269.86,777.5085 270.37,818.84 270.76,849.4 " fill="none" id="instance_type-backto-database_instance_type" style="stroke:#FFAF37;stroke-width:2.0;"/><polygon fill="none" points="269.24,728.99,263.4705,747.0652,275.4695,746.9119,269.24,728.99" style="stroke:#FFAF37;stroke-width:2.0;"/></g><!--reverse link type to instance_type--><g id="link_type_instance_type"><path codeLine="50" d="M266.702,586.1968 C267.282,616.7168 268.06,658.05 268.64,688.62 " fill="none" id="type-backto-instance_type" style="stroke:#FFAF37;stroke-width:2.0;"/><polygon fill="none" points="266.36,568.2,260.7031,586.3108,272.7009,586.0827,266.36,568.2" style="stroke:#FFAF37;stroke-width:2.0;"/></g><!--reverse link resource to microsoft_resource--><g id="link_resource_microsoft_resource"><path codeLine="51" d="M137.0143,64.7472 C130.5543,112.4472 116.14,218.97 109.62,267.08 " fill="none" id="resource-backto-microsoft_resource" style="stroke:#FFAF37;stroke-width:2.0;"/><polygon fill="none" points="139.43,46.91,131.0686,63.9419,142.96,65.5524,139.43,46.91" style="stroke:#FFAF37;stroke-width:2.0;"/></g><!--reverse link resource to phantom_resource--><g id="link_resource_phantom_resource"><path codeLine="52" d="M166.7881,61.5406 C189.2781,92.0606 222.32,136.9 244.84,167.46 " fill="none" id="resource-backto-phantom_resource" style="stroke:#FFAF37;stroke-width:2.0;"/><polygon fill="none" points="156.11,47.05,161.9579,65.1,171.6183,57.9813,156.11,47.05" style="stroke:#FFAF37;stroke-width:2.0;"/></g><!--reverse link phantom_resource to quota--><g id="link_phantom_resource_quota"><path codeLine="53" d="M260.133,225.9818 C261.273,263.7518 263.26,329.04 264.41,366.88 " fill="none" id="phantom_resource-backto-quota" style="stroke:#FFAF37;stroke-width:2.0;"/><polygon fill="none" points="259.59,207.99,254.1358,226.1628,266.1303,225.8008,259.59,207.99" style="stroke:#FFAF37;stroke-width:2.0;"/></g><!--reverse link quota to type--><g id="link_quota_type"><path codeLine="54" d="M265.2321,425.4097 C265.4221,455.9297 265.69,497.26 265.88,527.83 " fill="none" id="quota-backto-type" style="stroke:#FFAF37;stroke-width:2.0;"/><polygon fill="none" points="265.12,407.41,259.2322,425.447,271.2319,425.3723,265.12,407.41" style="stroke:#FFAF37;stroke-width:2.0;"/></g><!--SRC=[XP11Jm8n48Nl_HLDE9E0H874Yv8OlH0ZtZUpsoaqRDjbseM0-jzrMTJItONhl6_clNah9P2ZBloUQzGfacDkhKm119e_4DdTpEQMU4zAaADnB3vPuwy2Sz38dp7VebSPnCJxIcLhWyxncq1wX6oz95iQKP_t1CRzI6XyGCroSEx1Ur9fwJ488wRfHCgOZ8_sHc8uliC6PaaWdP31O226qnYvQdNnxpzYeGx8Xs5fS-kn4RDXSQGkfgo886JZqL-zC-Ch2A7Cajy6ixSw4ncai_bY1SBkAbf2xa8Rvv7G-ds1iyPNE9q8EMw5NxfWbbNLSJYKX8dUkqsUEAGjKbAjyG_6law800yfE4oKSHvCXWsYKz0g8-kiz0cXioLbPsgn0kEjRjKsfVKG3jgWVxkEZFUV_Nw_wqVMakxoGjlnTcSM4ET2PDNC41DnIwnHMyqT6sDrR_NawFSD]--></g></svg>

<svg xmlns="http://www.w3.org/2000/svg" width="399" height="1056" viewBox="0 0 399 1056"><rect width="254" height="39.789" x="31" y="1010.52" fill="#3D176E" rx="2.5" ry="2.5" style="stroke:#000d19;stroke-width:.5"/><circle cx="46" cy="1030.415" r="11" fill="#ADD1B2" style="stroke:#181818;stroke-width:1"/><path d="M48.969 1036.055q-.578.297-1.219.438-.64.156-1.344.156-2.5 0-3.828-1.64-1.312-1.657-1.312-4.782t1.312-4.781q1.328-1.656 3.828-1.656.703 0 1.344.156.656.156 1.219.453v2.719q-.625-.578-1.219-.844-.594-.281-1.219-.281-1.343 0-2.031 1.078-.687 1.062-.687 3.156t.687 3.172q.688 1.062 2.031 1.062.625 0 1.219-.265.594-.281 1.219-.86z"/><text x="65" y="1036.3" fill="#D9B8FF" font-family="Helvetica" font-size="17" textLength="212">azure_mysql_server_type</text><rect width="242" height="39.789" x="150" y="849.73" fill="#3D176E" rx="2.5" ry="2.5" style="stroke:#000d19;stroke-width:.5"/><circle cx="165" cy="869.625" r="11" fill="#ADD1B2" style="stroke:#181818;stroke-width:1"/><path d="M167.969 875.265q-.578.297-1.219.438-.64.156-1.344.156-2.5 0-3.828-1.64-1.312-1.657-1.312-4.782t1.312-4.781q1.328-1.656 3.828-1.656.703 0 1.344.156.656.156 1.219.453v2.719q-.625-.578-1.219-.844-.594-.281-1.219-.281-1.344 0-2.031 1.078-.687 1.062-.687 3.156t.687 3.172q.688 1.062 2.031 1.062.625 0 1.219-.265.594-.281 1.219-.86z"/><text x="184" y="875.51" fill="#D9B8FF" font-family="Helvetica" font-size="17" textLength="200">database_instance_type</text><rect width="158" height="39.789" x="190" y="688.94" fill="#3D176E" rx="2.5" ry="2.5" style="stroke:#000d19;stroke-width:.5"/><circle cx="205" cy="708.835" r="11" fill="#ADD1B2" style="stroke:#181818;stroke-width:1"/><path d="M207.969 714.475q-.578.297-1.219.438-.64.156-1.344.156-2.5 0-3.828-1.64-1.312-1.657-1.312-4.782t1.312-4.781q1.328-1.656 3.828-1.656.703 0 1.344.156.656.156 1.219.453v2.719q-.625-.578-1.219-.844-.594-.281-1.219-.281-1.344 0-2.031 1.078-.687 1.062-.687 3.156t.687 3.172q.688 1.062 2.031 1.062.625 0 1.219-.265.594-.281 1.219-.86z"/><text x="224" y="714.72" fill="#D9B8FF" font-family="Helvetica" font-size="17" textLength="116">instance_type</text><rect width="200" height="39.789" x="7" y="267.58" fill="#3D176E" rx="2.5" ry="2.5" style="stroke:#000d19;stroke-width:.5"/><circle cx="22" cy="287.474" r="11" fill="#ADD1B2" style="stroke:#181818;stroke-width:1"/><path d="M24.969 293.115q-.578.297-1.219.438-.64.156-1.344.156-2.5 0-3.828-1.64-1.312-1.657-1.312-4.782t1.312-4.781q1.328-1.656 3.828-1.656.703 0 1.344.156.656.156 1.219.453v2.719q-.625-.579-1.219-.844-.594-.281-1.219-.281-1.343 0-2.031 1.078-.687 1.062-.687 3.156t.687 3.172q.688 1.062 2.031 1.062.625 0 1.219-.265.594-.281 1.219-.86z"/><text x="41" y="293.36" fill="#D9B8FF" font-family="Helvetica" font-size="17" textLength="158">microsoft_resource</text><rect width="198" height="39.789" x="160" y="167.79" fill="#3D176E" rx="2.5" ry="2.5" style="stroke:#000d19;stroke-width:.5"/><circle cx="175" cy="187.685" r="11" fill="#ADD1B2" style="stroke:#181818;stroke-width:1"/><path d="M177.969 193.325q-.578.297-1.219.438-.64.156-1.344.156-2.5 0-3.828-1.64-1.312-1.657-1.312-4.782t1.312-4.781q1.328-1.656 3.828-1.656.703 0 1.344.156.656.156 1.219.453v2.719q-.625-.578-1.219-.844-.594-.281-1.219-.281-1.344 0-2.031 1.078-.687 1.062-.687 3.156t.687 3.172q.688 1.062 2.031 1.062.625 0 1.219-.265.594-.281 1.219-.86z"/><text x="194" y="193.57" fill="#D9B8FF" font-family="Helvetica" font-size="17" textLength="156">phantom_resource</text><rect width="90" height="39.789" x="220" y="367.36" fill="#3D176E" rx="2.5" ry="2.5" style="stroke:#000d19;stroke-width:.5"/><circle cx="235" cy="387.255" r="11" fill="#ADD1B2" style="stroke:#181818;stroke-width:1"/><path d="M237.969 392.895q-.578.297-1.219.438-.64.156-1.344.156-2.5 0-3.828-1.64-1.312-1.657-1.312-4.782t1.312-4.781q1.328-1.656 3.828-1.656.703 0 1.344.156.656.156 1.219.453v2.719q-.625-.579-1.219-.844-.594-.281-1.219-.281-1.344 0-2.031 1.078-.687 1.062-.687 3.156t.687 3.172q.688 1.062 2.031 1.062.625 0 1.219-.265.594-.281 1.219-.86z"/><text x="254" y="393.14" fill="#D9B8FF" font-family="Helvetica" font-size="17" textLength="48">quota</text><rect width="113" height="39.789" x="85.5" y="7" fill="#3D176E" rx="2.5" ry="2.5" style="stroke:#000d19;stroke-width:.5"/><circle cx="100.5" cy="26.895" r="11" fill="#ADD1B2" style="stroke:#181818;stroke-width:1"/><path d="M103.469 32.535q-.578.297-1.219.438-.64.156-1.344.156-2.5 0-3.828-1.64-1.312-1.657-1.312-4.782t1.312-4.781q1.328-1.656 3.828-1.656.703 0 1.344.156.656.156 1.219.453v2.719q-.625-.578-1.219-.844-.594-.281-1.219-.281-1.344 0-2.031 1.078-.687 1.062-.687 3.156T99 29.879q.688 1.062 2.031 1.062.625 0 1.219-.265.594-.281 1.219-.86z"/><text x="119.5" y="32.78" fill="#D9B8FF" font-family="Helvetica" font-size="17" textLength="71">resource</text><rect width="79" height="39.789" x="226.5" y="528.15" fill="#3D176E" rx="2.5" ry="2.5" style="stroke:#000d19;stroke-width:.5"/><circle cx="241.5" cy="548.044" r="11" fill="#ADD1B2" style="stroke:#181818;stroke-width:1"/><path d="M244.469 553.685q-.578.297-1.219.438-.64.156-1.344.156-2.5 0-3.828-1.64-1.312-1.657-1.312-4.782t1.312-4.781q1.328-1.657 3.828-1.657.703 0 1.344.157.656.156 1.219.453v2.719q-.625-.579-1.219-.844-.594-.281-1.219-.281-1.344 0-2.031 1.078-.687 1.062-.687 3.156t.687 3.172q.688 1.062 2.031 1.062.625 0 1.219-.265.594-.282 1.219-.86z"/><text x="260.5" y="553.93" fill="#D9B8FF" font-family="Helvetica" font-size="17" textLength="37">type</text><path fill="none" d="M246.933 904.445c-21.72 30.52-53.503 75.185-75.253 105.745m85.69-120.41-15.325 11.186 9.777 6.958z" style="stroke:#ffaf37;stroke-width:2"/><g fill="none"><path d="M103.638 325.681C100.768 358.421 97 409.05 97 467.15v403.48c0 53.45 30.49 110.69 48.36 139.65" style="stroke:#ffaf37;stroke-width:2"/><path d="m105.21 307.75-7.549 17.407 11.954 1.048z" style="stroke:#ffaf37;stroke-width:2"/></g><path fill="none" d="M269.47 746.989c.39 30.52.9 71.851 1.29 102.411m-1.52-120.41-5.77 18.075 12-.153zm-2.538-142.793c.58 30.52 1.358 71.853 1.938 102.423m-2.28-120.42-5.657 18.11 11.998-.227zM137.014 64.747c-6.46 47.7-20.874 154.223-27.394 202.333m29.81-220.17-8.361 17.032 11.891 1.61zm27.358 14.63 78.052 105.92M156.11 47.05l5.848 18.05 9.66-7.119z" style="stroke:#ffaf37;stroke-width:2"/><g fill="none"><path d="M260.133 225.982c1.14 37.77 3.127 103.058 4.277 140.898" style="stroke:#ffaf37;stroke-width:2"/><path d="m259.59 207.99-5.454 18.173 11.994-.362z" style="stroke:#ffaf37;stroke-width:2"/></g><path fill="none" d="M265.232 425.41c.19 30.52.458 71.85.648 102.42m-.76-120.42-5.888 18.037 12-.075z" style="stroke:#ffaf37;stroke-width:2"/></svg>
